;FLAVOR:UltiGCode
;TIME:3805
;MATERIAL:7684
;MATERIAL2:0
;NOZZLE_DIAMETER:0.4
;MINX:85.593
;MINY:69.892
;MINZ:0.3
;MAXX:137.407
;MAXY:122.658
;MAXZ:22.95
;Generated with Cura_SteamEngine 4.11.0
M82 ;absolute extrusion mode
G0 F3000 Y50 ;avoid prime blob
G92 E0
G92 E0
G10
;LAYER_COUNT:152
;LAYER:0
M107
G0 F3600 X87.282 Y73.08 Z0.3
;TYPE:SKIRT
G11
G1 F1800 X87.793 Y72.478 E0.09476
G1 X88.363 Y71.931 E0.18956
G1 X89.224 Y71.282 E0.31894
G1 X89.401 Y71.167 E0.34427
G1 X90.085 Y70.771 E0.43911
G1 X90.804 Y70.446 E0.5338
G1 X91.553 Y70.195 E0.62859
G1 X92.483 Y69.996 E0.74272
G1 X92.582 Y69.981 E0.75473
G1 X93.75 Y69.893 E0.89529
G1 X129.249 Y69.892 E5.15517
G1 X130.037 Y69.932 E5.24985
G1 X130.818 Y70.051 E5.34465
G1 X131.605 Y70.256 E5.44225
G1 X131.807 Y70.32 E5.46767
G1 X132.547 Y70.597 E5.56249
G1 X133.255 Y70.946 E5.65721
G1 X133.924 Y71.366 E5.752
G1 X134.547 Y71.851 E5.84674
G1 X135.118 Y72.396 E5.94147
G1 X135.631 Y72.997 E6.03629
G1 X136.024 Y73.548 E6.1175
G1 X136.438 Y74.221 E6.21232
G1 X136.782 Y74.931 E6.30699
G1 X137.053 Y75.673 E6.40179
G1 X137.247 Y76.439 E6.49661
G1 X137.357 Y77.165 E6.58472
G1 X137.365 Y77.242 E6.59401
G1 X137.407 Y78.048 E6.69086
G1 X137.407 Y84.053 E7.41146
G1 X137.367 Y84.842 E7.50626
G1 X137.248 Y85.622 E7.60095
G1 X136.941 Y86.708 E7.73637
G1 X136.861 Y86.929 E7.76458
G1 X136.555 Y87.657 E7.85934
G1 X136.177 Y88.35 E7.95407
G1 X135.731 Y89.002 E8.04886
G1 X135.221 Y89.605 E8.14363
G1 X134.653 Y90.153 E8.23834
G1 X133.811 Y90.792 E8.36519
G1 X133.633 Y90.909 E8.39075
G1 X132.952 Y91.309 E8.48552
G1 X132.234 Y91.638 E8.5803
G1 X131.487 Y91.892 E8.67498
G1 X130.517 Y92.103 E8.7941
G1 X130.418 Y92.118 E8.80611
G1 X129.25 Y92.206 E8.94667
G1 X93.751 Y92.207 E13.20655
G1 X92.963 Y92.167 E13.30123
G1 X92.182 Y92.048 E13.39603
G1 X91.362 Y91.832 E13.49779
G1 X91.16 Y91.767 E13.52326
G1 X90.421 Y91.487 E13.61809
G1 X89.715 Y91.135 E13.71275
G1 X89.048 Y90.712 E13.80753
G1 X88.427 Y90.224 E13.90231
G1 X87.858 Y89.676 E13.99711
G1 X87.134 Y88.779 E14.13543
G1 X86.986 Y88.565 E14.16666
G1 X86.57 Y87.893 E14.2615
G1 X86.224 Y87.183 E14.35628
G1 X85.952 Y86.442 E14.451
G1 X85.756 Y85.677 E14.54576
G1 X85.642 Y84.924 E14.63715
G1 X85.634 Y84.846 E14.64656
G1 X85.593 Y84.05 E14.74221
G1 X85.593 Y78.045 E15.46281
G1 X85.633 Y77.256 E15.55761
G1 X85.752 Y76.476 E15.65229
G1 X86.066 Y75.371 E15.79014
G1 X86.147 Y75.149 E15.8185
G1 X86.454 Y74.422 E15.9132
G1 X86.834 Y73.73 E16.00794
G1 X87.282 Y73.08 E16.10267
G0 F3600 X87.636 Y73.275
G1 F1800 X88.14 Y72.694 E16.19496
G1 X88.701 Y72.168 E16.28725
G1 X89.442 Y71.618 E16.39798
G1 X89.619 Y71.503 E16.42331
G1 X90.285 Y71.118 E16.51563
G1 X90.987 Y70.804 E16.60791
G1 X91.718 Y70.565 E16.7002
G1 X92.542 Y70.392 E16.80123
G1 X92.641 Y70.377 E16.81325
G1 X93.75 Y70.293 E16.94671
G1 X129.249 Y70.292 E21.20659
G1 X130.017 Y70.332 E21.29888
G1 X130.777 Y70.451 E21.39119
G1 X131.484 Y70.638 E21.47895
G1 X131.686 Y70.702 E21.50437
G1 X132.406 Y70.972 E21.59665
G1 X133.094 Y71.315 E21.6889
G1 X133.743 Y71.728 E21.78121
G1 X134.346 Y72.206 E21.87355
G1 X134.895 Y72.744 E21.96579
G1 X135.546 Y73.56 E22.09105
G1 X135.694 Y73.775 E22.12237
G1 X136.097 Y74.43 E22.21466
G1 X136.429 Y75.124 E22.30698
G1 X136.688 Y75.848 E22.39925
G1 X136.87 Y76.596 E22.49163
G1 X136.959 Y77.206 E22.5656
G1 X136.967 Y77.283 E22.57489
G1 X137.007 Y78.048 E22.66682
G1 X137.007 Y84.053 E23.38742
G1 X136.967 Y84.821 E23.4797
G1 X136.848 Y85.581 E23.57202
G1 X136.565 Y86.572 E23.69569
G1 X136.485 Y86.793 E23.72389
G1 X136.186 Y87.501 E23.81612
G1 X135.815 Y88.175 E23.90844
G1 X135.376 Y88.807 E24.00078
G1 X134.874 Y89.389 E24.09301
G1 X134.314 Y89.917 E24.18537
G1 X133.592 Y90.458 E24.29364
G1 X133.414 Y90.575 E24.3192
G1 X132.75 Y90.963 E24.41149
G1 X132.049 Y91.281 E24.50386
G1 X131.319 Y91.524 E24.59618
G1 X130.458 Y91.707 E24.70181
G1 X130.359 Y91.722 E24.71383
G1 X129.25 Y91.806 E24.84729
G1 X93.751 Y91.807 E29.10717
G1 X92.983 Y91.767 E29.19945
G1 X92.223 Y91.648 E29.29176
G1 X91.484 Y91.451 E29.38354
G1 X91.282 Y91.386 E29.409
G1 X90.563 Y91.113 E29.50129
G1 X89.877 Y90.766 E29.59355
G1 X89.23 Y90.351 E29.68578
G1 X88.629 Y89.87 E29.77816
G1 X88.082 Y89.329 E29.87048
G1 X87.463 Y88.551 E29.98978
G1 X87.315 Y88.337 E30.02101
G1 X86.911 Y87.683 E30.11325
G1 X86.577 Y86.99 E30.20557
G1 X86.317 Y86.266 E30.29788
G1 X86.133 Y85.519 E30.3902
G1 X86.04 Y84.883 E30.46733
G1 X86.032 Y84.805 E30.47674
G1 X85.993 Y84.05 E30.56746
G1 X85.993 Y78.045 E31.28806
G1 X86.033 Y77.277 E31.38035
G1 X86.152 Y76.517 E31.47266
G1 X86.441 Y75.509 E31.59849
G1 X86.522 Y75.287 E31.62685
G1 X86.823 Y74.579 E31.71917
G1 X87.196 Y73.906 E31.8115
G1 X87.636 Y73.275 E31.90381
G0 F3600 X87.99 Y73.473
G1 F1800 X88.485 Y72.912 E31.99359
G1 X89.038 Y72.408 E32.08338
G1 X89.66 Y71.953 E32.17586
G1 X89.837 Y71.838 E32.20119
G1 X90.485 Y71.465 E32.29091
G1 X91.17 Y71.163 E32.38074
G1 X91.882 Y70.935 E32.47046
G1 X92.602 Y70.787 E32.55866
G1 X92.701 Y70.772 E32.57068
G1 X93.75 Y70.693 E32.69692
G1 X129.249 Y70.692 E36.9568
G1 X129.996 Y70.732 E37.04656
G1 X130.734 Y70.851 E37.13627
G1 X131.363 Y71.019 E37.21439
G1 X131.565 Y71.083 E37.23982
G1 X132.265 Y71.347 E37.3296
G1 X132.933 Y71.684 E37.41938
G1 X133.561 Y72.09 E37.50912
G1 X134.142 Y72.561 E37.59887
G1 X134.67 Y73.091 E37.68864
G1 X135.217 Y73.787 E37.79487
G1 X135.365 Y74.002 E37.82619
G1 X135.756 Y74.64 E37.91599
G1 X136.076 Y75.316 E38.00574
G1 X136.322 Y76.022 E38.09545
G1 X136.492 Y76.751 E38.18528
G1 X136.562 Y77.248 E38.24551
G1 X136.57 Y77.325 E38.2548
G1 X136.607 Y78.048 E38.34167
G1 X136.607 Y84.053 E39.06227
G1 X136.567 Y84.8 E39.15204
G1 X136.448 Y85.538 E39.24174
G1 X136.189 Y86.436 E39.3539
G1 X136.109 Y86.657 E39.3821
G1 X135.817 Y87.345 E39.47179
G1 X135.454 Y87.999 E39.56155
G1 X135.022 Y88.61 E39.65134
G1 X134.528 Y89.172 E39.74113
G1 X133.977 Y89.678 E39.8309
G1 X133.372 Y90.124 E39.9211
G1 X133.194 Y90.241 E39.94666
G1 X132.548 Y90.617 E40.03635
G1 X131.865 Y90.923 E40.12616
G1 X131.154 Y91.154 E40.21587
G1 X130.398 Y91.312 E40.30855
G1 X130.299 Y91.327 E40.32057
G1 X129.25 Y91.406 E40.44681
G1 X93.751 Y91.407 E44.70669
G1 X93.004 Y91.367 E44.79645
G1 X92.266 Y91.248 E44.88616
G1 X91.607 Y91.071 E44.96804
G1 X91.405 Y91.006 E44.9935
G1 X90.706 Y90.739 E45.0833
G1 X90.04 Y90.399 E45.17303
G1 X89.413 Y89.99 E45.26286
G1 X88.834 Y89.516 E45.35265
G1 X88.309 Y88.983 E45.44243
G1 X87.792 Y88.324 E45.54294
G1 X87.644 Y88.11 E45.57417
G1 X87.252 Y87.473 E45.66392
G1 X86.93 Y86.797 E45.75377
G1 X86.682 Y86.091 E45.84357
G1 X86.511 Y85.363 E45.9333
G1 X86.438 Y84.842 E45.99644
G1 X86.43 Y84.764 E46.00584
G1 X86.393 Y84.05 E46.09164
G1 X86.393 Y78.045 E46.81224
G1 X86.433 Y77.298 E46.90201
G1 X86.552 Y76.56 E46.99171
G1 X86.817 Y75.646 E47.10591
G1 X86.898 Y75.424 E47.13427
G1 X87.192 Y74.736 E47.22405
G1 X87.557 Y74.083 E47.31382
G1 X87.99 Y73.473 E47.40359
G0 F3600 X88.343 Y73.672
G1 F1800 X88.83 Y73.133 E47.49076
G1 X89.373 Y72.651 E47.57788
G1 X89.878 Y72.289 E47.65245
G1 X90.055 Y72.174 E47.67778
G1 X90.685 Y71.812 E47.76497
G1 X91.351 Y71.522 E47.85214
G1 X92.045 Y71.306 E47.93936
G1 X92.662 Y71.182 E48.01488
G1 X92.761 Y71.167 E48.02689
G1 X93.75 Y71.093 E48.1459
G1 X129.249 Y71.092 E52.40578
G1 X129.974 Y71.132 E52.49292
G1 X130.691 Y71.251 E52.58013
G1 X131.242 Y71.4 E52.64863
G1 X131.444 Y71.464 E52.67406
G1 X132.124 Y71.721 E52.76129
G1 X132.771 Y72.052 E52.8485
G1 X133.377 Y72.451 E52.93557
G1 X133.937 Y72.915 E53.02284
G1 X134.441 Y73.437 E53.10991
G1 X134.887 Y74.014 E53.19742
G1 X135.035 Y74.229 E53.22874
G1 X135.414 Y74.849 E53.31594
G1 X135.722 Y75.507 E53.40313
G1 X135.955 Y76.194 E53.49018
G1 X136.112 Y76.904 E53.57744
G1 X136.172 Y77.366 E53.63334
G1 X136.207 Y78.048 E53.71529
G1 X136.207 Y84.053 E54.43589
G1 X136.167 Y84.778 E54.52302
G1 X136.048 Y85.495 E54.61024
G1 X135.813 Y86.299 E54.71076
G1 X135.733 Y86.52 E54.73896
G1 X135.448 Y87.189 E54.82622
G1 X135.092 Y87.822 E54.91337
G1 X134.669 Y88.412 E55.00049
G1 X134.183 Y88.952 E55.08767
G1 X133.641 Y89.435 E55.17478
G1 X133.152 Y89.789 E55.24723
G1 X132.974 Y89.906 E55.27279
G1 X132.346 Y90.271 E55.35995
G1 X131.682 Y90.565 E55.44709
G1 X130.989 Y90.784 E55.53431
G1 X130.338 Y90.917 E55.61404
G1 X130.239 Y90.932 E55.62605
G1 X129.25 Y91.006 E55.74507
G1 X93.751 Y91.007 E60.00495
G1 X93.026 Y90.967 E60.09208
G1 X92.309 Y90.848 E60.1793
G1 X91.729 Y90.69 E60.25143
G1 X91.527 Y90.625 E60.2769
G1 X90.849 Y90.365 E60.36403
G1 X90.204 Y90.031 E60.4512
G1 X89.599 Y89.629 E60.53836
G1 X89.042 Y89.163 E60.62551
G1 X88.539 Y88.639 E60.71267
G1 X88.121 Y88.096 E60.7949
G1 X87.973 Y87.882 E60.82612
G1 X87.593 Y87.263 E60.91328
G1 X87.284 Y86.606 E61.00041
G1 X87.049 Y85.918 E61.08765
G1 X86.89 Y85.21 E61.17473
G1 X86.827 Y84.723 E61.23365
G1 X86.793 Y84.05 E61.31452
G1 X86.793 Y78.045 E62.03512
G1 X86.833 Y77.32 E62.12225
G1 X86.952 Y76.603 E62.20947
G1 X87.193 Y75.783 E62.31203
G1 X87.274 Y75.561 E62.34039
G1 X87.56 Y74.893 E62.42758
G1 X87.918 Y74.261 E62.51475
G1 X88.343 Y73.672 E62.60191
G0 F3600 X88.695 Y73.873
G1 F1800 X89.174 Y73.357 E62.68639
G1 X89.708 Y72.898 E62.77089
G1 X90.273 Y72.509 E62.85321
G1 X90.884 Y72.16 E62.93764
G1 X91.531 Y71.882 E63.02215
G1 X92.205 Y71.679 E63.10662
G1 X92.722 Y71.578 E63.16983
G1 X92.821 Y71.563 E63.18185
G1 X93.75 Y71.493 E63.29364
G1 X129.249 Y71.492 E67.55352
G1 X129.952 Y71.532 E67.63802
G1 X130.645 Y71.651 E67.7224
G1 X131.324 Y71.846 E67.80717
G1 X131.982 Y72.096 E67.89164
G1 X132.607 Y72.419 E67.97606
G1 X133.192 Y72.811 E68.06056
G1 X133.728 Y73.267 E68.14501
G1 X134.209 Y73.781 E68.22948
G1 X134.558 Y74.24 E68.29868
G1 X134.706 Y74.455 E68.33
G1 X135.072 Y75.057 E68.41454
G1 X135.367 Y75.696 E68.499
G1 X135.587 Y76.365 E68.58351
G1 X135.766 Y77.33 E68.70129
G1 X135.774 Y77.407 E68.71058
G1 X135.807 Y78.048 E68.7876
G1 X135.807 Y84.053 E69.5082
G1 X135.767 Y84.756 E69.59269
G1 X135.648 Y85.45 E69.67719
G1 X135.437 Y86.163 E69.76642
G1 X135.357 Y86.384 E69.79462
G1 X135.08 Y87.032 E69.87919
G1 X134.732 Y87.643 E69.96357
G1 X134.316 Y88.212 E70.04815
G1 X133.839 Y88.729 E70.13256
G1 X133.306 Y89.189 E70.21705
G1 X132.754 Y89.572 E70.29767
G1 X132.145 Y89.925 E70.38214
G1 X131.5 Y90.206 E70.46656
G1 X130.827 Y90.412 E70.55102
G1 X130.278 Y90.521 E70.61819
G1 X130.179 Y90.536 E70.63021
G1 X129.25 Y90.606 E70.742
G1 X93.751 Y90.607 E75.00188
G1 X93.048 Y90.567 E75.08638
G1 X92.355 Y90.448 E75.17075
G1 X91.852 Y90.309 E75.23338
G1 X91.65 Y90.244 E75.25884
G1 X90.993 Y89.991 E75.34332
G1 X90.369 Y89.664 E75.42786
G1 X89.786 Y89.27 E75.5123
G1 X89.252 Y88.811 E75.5968
G1 X88.773 Y88.295 E75.68129
G1 X88.45 Y87.869 E75.74544
G1 X88.302 Y87.655 E75.77666
G1 X87.935 Y87.054 E75.86117
G1 X87.638 Y86.415 E75.94572
G1 X87.416 Y85.747 E76.0302
G1 X87.233 Y84.761 E76.15054
G1 X87.225 Y84.683 E76.15994
G1 X87.193 Y84.05 E76.236
G1 X87.193 Y78.045 E76.9566
G1 X87.233 Y77.342 E77.0411
G1 X87.352 Y76.648 E77.12559
G1 X87.569 Y75.92 E77.21675
G1 X87.65 Y75.698 E77.24511
G1 X87.928 Y75.051 E77.32961
G1 X88.278 Y74.44 E77.41411
G1 X88.695 Y73.873 E77.49857
G0 F3600 X89.046 Y74.077
G1 F1800 X89.516 Y73.584 E77.58031
G1 X90.314 Y72.959 E77.70194
G1 X90.491 Y72.844 E77.72727
G1 X91.083 Y72.508 E77.80896
G1 X91.71 Y72.242 E77.89069
G1 X92.364 Y72.053 E77.97238
G1 X92.881 Y71.958 E78.03546
G1 X93.75 Y71.893 E78.14003
G1 X129.249 Y71.892 E82.39991
G1 X129.929 Y71.932 E82.48165
G1 X130.599 Y72.051 E82.56331
G1 X131.203 Y72.227 E82.6388
G1 X131.839 Y72.47 E82.7205
G1 X132.442 Y72.787 E82.80225
G1 X133.003 Y73.171 E82.88383
G1 X133.516 Y73.619 E82.96556
G1 X133.973 Y74.124 E83.04729
G1 X134.376 Y74.682 E83.12989
G1 X134.729 Y75.265 E83.21168
G1 X135.011 Y75.885 E83.29341
G1 X135.218 Y76.533 E83.37504
G1 X135.368 Y77.372 E83.47732
G1 X135.376 Y77.449 E83.48661
G1 X135.407 Y78.048 E83.55858
G1 X135.407 Y84.053 E84.27918
G1 X135.367 Y84.733 E84.36092
G1 X135.248 Y85.403 E84.44258
G1 X135.061 Y86.027 E84.52075
G1 X134.981 Y86.248 E84.54896
G1 X134.712 Y86.874 E84.63072
G1 X134.371 Y87.463 E84.71239
G1 X133.964 Y88.009 E84.79411
G1 X133.496 Y88.503 E84.87577
G1 X132.713 Y89.121 E84.99547
G1 X132.535 Y89.238 E85.02103
G1 X131.945 Y89.578 E85.10274
G1 X131.319 Y89.846 E85.18446
G1 X130.666 Y90.039 E85.26617
G1 X130.119 Y90.141 E85.33294
G1 X129.25 Y90.206 E85.43751
G1 X93.751 Y90.207 E89.69739
G1 X93.071 Y90.167 E89.77913
G1 X92.401 Y90.048 E89.86079
G1 X91.772 Y89.863 E89.93947
G1 X91.138 Y89.617 E90.02108
G1 X90.536 Y89.298 E90.10283
G1 X89.976 Y88.911 E90.18452
G1 X89.465 Y88.461 E90.26622
G1 X89.011 Y87.954 E90.34789
G1 X88.631 Y87.427 E90.42586
G1 X88.277 Y86.845 E90.5076
G1 X87.994 Y86.226 E90.58928
G1 X87.785 Y85.578 E90.67098
G1 X87.631 Y84.72 E90.77559
G1 X87.623 Y84.642 E90.785
G1 X87.593 Y84.05 E90.85613
G1 X87.593 Y78.045 E91.57673
G1 X87.633 Y77.365 E91.65847
G1 X87.752 Y76.695 E91.74013
G1 X87.944 Y76.057 E91.82008
G1 X88.025 Y75.835 E91.84844
G1 X88.296 Y75.21 E91.93018
G1 X88.638 Y74.621 E92.01191
G1 X89.046 Y74.077 E92.09351
G0 F3600 X88.997 Y74.804
G1 F1800 X89.397 Y74.282 E92.17243
G1 X89.857 Y73.813 E92.25126
G1 X90.532 Y73.295 E92.35336
G1 X90.709 Y73.18 E92.37869
G1 X91.281 Y72.856 E92.45758
G1 X91.887 Y72.604 E92.53634
G1 X92.842 Y72.369 E92.65436
G1 X92.941 Y72.354 E92.66637
G1 X93.75 Y72.293 E92.76373
G1 X129.249 Y72.292 E97.02361
G1 X129.905 Y72.332 E97.10247
G1 X130.551 Y72.451 E97.1813
G1 X131.082 Y72.608 E97.24774
G1 X131.695 Y72.844 E97.32657
G1 X132.275 Y73.153 E97.40543
G1 X132.813 Y73.53 E97.48426
G1 X133.301 Y73.97 E97.56311
G1 X133.899 Y74.694 E97.67579
G1 X134.047 Y74.909 E97.70712
G1 X134.386 Y75.472 E97.78598
G1 X134.654 Y76.072 E97.86483
G1 X134.847 Y76.7 E97.94367
G1 X134.97 Y77.413 E98.0305
G1 X134.978 Y77.49 E98.03979
G1 X135.007 Y78.048 E98.10684
G1 X135.007 Y84.053 E98.82744
G1 X134.967 Y84.709 E98.9063
G1 X134.848 Y85.355 E98.98513
G1 X134.685 Y85.891 E99.05235
G1 X134.605 Y86.112 E99.08056
G1 X134.344 Y86.715 E99.15941
G1 X134.012 Y87.282 E99.23825
G1 X133.613 Y87.804 E99.3171
G1 X133.154 Y88.274 E99.39593
G1 X132.493 Y88.786 E99.49626
G1 X132.315 Y88.903 E99.52182
G1 X131.745 Y89.23 E99.60068
G1 X131.14 Y89.485 E99.67946
G1 X130.508 Y89.665 E99.75832
G1 X130.059 Y89.745 E99.81305
G1 X129.25 Y89.806 E99.9104
G1 X93.751 Y89.807 E104.17028
G1 X93.095 Y89.767 E104.24915
G1 X92.449 Y89.648 E104.32797
G1 X91.895 Y89.482 E104.39738
G1 X91.283 Y89.244 E104.47617
G1 X90.704 Y88.932 E104.5551
G1 X90.168 Y88.553 E104.63387
G1 X89.682 Y88.111 E104.71271
G1 X89.108 Y87.414 E104.82106
G1 X88.96 Y87.2 E104.85228
G1 X88.62 Y86.638 E104.9311
G1 X88.35 Y86.038 E105.01006
G1 X88.156 Y85.411 E105.08881
G1 X88.029 Y84.679 E105.17797
G1 X88.021 Y84.601 E105.18738
G1 X87.993 Y84.05 E105.25358
G1 X87.993 Y78.045 E105.97418
G1 X88.033 Y77.389 E106.05305
G1 X88.152 Y76.743 E106.13187
G1 X88.32 Y76.194 E106.20077
G1 X88.401 Y75.972 E106.22913
G1 X88.663 Y75.37 E106.30791
G1 X88.997 Y74.804 E106.38677
G0 F3600 X89.355 Y74.988
G1 F1800 X89.746 Y74.491 E106.46266
G1 X90.196 Y74.047 E106.53852
G1 X90.75 Y73.63 E106.62173
G1 X90.927 Y73.515 E106.64706
G1 X91.478 Y73.205 E106.72292
G1 X92.063 Y72.967 E106.79871
G1 X92.902 Y72.764 E106.90229
G1 X93.001 Y72.749 E106.91431
G1 X93.75 Y72.693 E107.00444
G1 X129.249 Y72.692 E111.26432
G1 X129.88 Y72.732 E111.34019
G1 X130.759 Y72.926 E111.44821
G1 X130.961 Y72.99 E111.47364
G1 X131.551 Y73.218 E111.54954
G1 X132.106 Y73.519 E111.62531
G1 X132.62 Y73.888 E111.70123
G1 X133.082 Y74.319 E111.77705
G1 X133.57 Y74.921 E111.87005
G1 X133.718 Y75.136 E111.90137
