;START_OF_HEADER
;HEADER_VERSION:0.1
;FLAVOR:Griffin
;GENERATOR.NAME:Cura_SteamEngine
;GENERATOR.VERSION:4.11.0
;GENERATOR.BUILD_DATE:2021-09-07
;TARGET_MACHINE.NAME:Ultimaker S5
;EXTRUDER_TRAIN.0.INITIAL_TEMPERATURE:200
;EXTRUDER_TRAIN.0.MATERIAL.VOLUME_USED:8266
;EXTRUDER_TRAIN.0.MATERIAL.GUID:506c9f0d-e3aa-4bd4-b2d2-23e2425b1aa9
;EXTRUDER_TRAIN.0.NOZZLE.DIAMETER:0.4
;EXTRUDER_TRAIN.0.NOZZLE.NAME:AA 0.4
;BUILD_PLATE.TYPE:glass
;BUILD_PLATE.INITIAL_TEMPERATURE:60
;BUILD_VOLUME.TEMPERATURE:28
;PRINT.TIME:8371
;PRINT.GROUPS:1
;PRINT.SIZE.MIN.X:140.019
;PRINT.SIZE.MIN.Y:93.269
;PRINT.SIZE.MIN.Z:0.2
;PRINT.SIZE.MAX.X:189.981
;PRINT.SIZE.MAX.Y:130.231
;PRINT.SIZE.MAX.Z:23
;END_OF_HEADER
;Generated with Cura_SteamEngine 4.11.0
T0
M82 ;absolute extrusion mode

G92 E0
M109 S200
G280 S1
G0 Z20.001
G1 F1500 E-6.5
;LAYER_COUNT:229
;LAYER:0
M107
M204 S625
M205 X10 Y10
G1 F600 Z2.2
G0 F1285.7 X188.468 Y127.415 Z2.2
M204 S500
M205 X5 Y5
;TYPE:SKIRT
G1 F600 Z0.2
G1 F1500 E0
G1 F600 X187.987 Y127.983 E0.0098
G1 X187.448 Y128.496 E0.0196
G1 X186.856 Y128.948 E0.02941
G1 X186.22 Y129.334 E0.0392
G1 X185.373 Y129.717 E0.05144
G1 X184.465 Y130.014 E0.06402
G1 X183.735 Y130.16 E0.07382
G1 X182.749 Y130.23 E0.08684
G1 X147.251 Y130.231 E0.55426
G1 X146.508 Y130.191 E0.56405
G1 X145.773 Y130.072 E0.57386
G1 X144.785 Y129.778 E0.58743
G1 X143.908 Y129.401 E0.6
G1 X143.264 Y129.028 E0.6098
G1 X142.663 Y128.588 E0.61961
G1 X142.114 Y128.086 E0.6294
G1 X141.621 Y127.528 E0.63921
G1 X141.191 Y126.921 E0.649
G1 X140.779 Y126.167 E0.66032
G1 X140.395 Y125.253 E0.67337
G1 X140.191 Y124.537 E0.68317
G1 X140.066 Y123.804 E0.69296
G1 X140.019 Y123 E0.70357
G1 X140.021 Y116.992 E0.78268
G1 X140.061 Y116.248 E0.79249
G1 X140.181 Y115.514 E0.80228
G1 X140.379 Y114.796 E0.81209
G1 X140.766 Y113.859 E0.82544
G1 X141.115 Y113.202 E0.83523
G1 X141.532 Y112.585 E0.84504
G1 X142.013 Y112.017 E0.85484
G1 X142.293 Y111.75 E0.85993
G1 X141.621 Y111.028 E0.87292
G1 X141.191 Y110.421 E0.88272
G1 X140.779 Y109.667 E0.89403
G1 X140.395 Y108.753 E0.90708
G1 X140.191 Y108.037 E0.91689
G1 X140.066 Y107.304 E0.92668
G1 X140.019 Y106.5 E0.93728
G1 X140.021 Y100.492 E1.01639
G1 X140.061 Y99.748 E1.0262
G1 X140.181 Y99.014 E1.036
G1 X140.379 Y98.296 E1.0458
G1 X140.766 Y97.359 E1.05915
G1 X141.115 Y96.702 E1.06895
G1 X141.532 Y96.085 E1.07875
G1 X142.013 Y95.517 E1.08855
G1 X142.552 Y95.004 E1.09835
G1 X143.144 Y94.552 E1.10816
G1 X143.78 Y94.166 E1.11796
G1 X144.627 Y93.783 E1.1302
G1 X145.535 Y93.486 E1.14277
G1 X146.265 Y93.34 E1.15258
G1 X147.251 Y93.27 E1.16559
G1 X182.749 Y93.269 E1.63301
G1 X183.492 Y93.309 E1.64281
G1 X184.227 Y93.428 E1.65261
G1 X185.215 Y93.722 E1.66618
G1 X186.092 Y94.099 E1.67875
G1 X186.736 Y94.472 E1.68855
G1 X187.337 Y94.912 E1.69836
G1 X187.886 Y95.414 E1.70816
G1 X188.379 Y95.972 E1.71796
G1 X188.809 Y96.579 E1.72776
G1 X189.221 Y97.333 E1.73907
G1 X189.605 Y98.247 E1.75212
G1 X189.809 Y98.963 E1.76193
G1 X189.934 Y99.696 E1.77172
G1 X189.981 Y100.5 E1.78232
G1 X189.979 Y106.508 E1.86143
G1 X189.939 Y107.252 E1.87124
G1 X189.819 Y107.986 E1.88104
G1 X189.621 Y108.704 E1.89084
G1 X189.234 Y109.641 E1.90419
G1 X188.885 Y110.298 E1.91399
G1 X188.468 Y110.915 E1.92379
G1 X187.987 Y111.483 E1.93359
G1 X187.707 Y111.75 E1.93869
G1 X188.379 Y112.472 E1.95168
G1 X188.809 Y113.079 E1.96147
G1 X189.221 Y113.833 E1.97278
G1 X189.605 Y114.747 E1.98584
G1 X189.809 Y115.463 E1.99564
G1 X189.934 Y116.196 E2.00543
G1 X189.981 Y117 E2.01604
G1 X189.979 Y123.008 E2.09515
G1 X189.939 Y123.752 E2.10496
G1 X189.819 Y124.486 E2.11475
G1 X189.621 Y125.204 E2.12456
G1 X189.234 Y126.141 E2.13791
G1 X188.885 Y126.798 E2.1477
G1 X188.468 Y127.415 E2.15751
M204 S625
M205 X10 Y10
G0 F1285.7 X188.106 Y127.196
M204 S500
M205 X5 Y5
G1 F600 X187.635 Y127.743 E2.16701
G1 X187.107 Y128.234 E2.17651
G1 X186.527 Y128.663 E2.18601
G1 X185.904 Y129.026 E2.1955
G1 X185.028 Y129.398 E2.20803
G1 X184.339 Y129.613 E2.21753
G1 X183.631 Y129.75 E2.22703
G1 X182.749 Y129.81 E2.23867
G1 X147.251 Y129.811 E2.70609
G1 X146.531 Y129.771 E2.71558
G1 X145.819 Y129.652 E2.72509
G1 X144.935 Y129.385 E2.73725
G1 X144.079 Y129.016 E2.74952
G1 X143.456 Y128.652 E2.75902
G1 X142.878 Y128.22 E2.76852
G1 X142.351 Y127.728 E2.77802
G1 X141.882 Y127.18 E2.78751
G1 X141.476 Y126.583 E2.79702
G1 X141.054 Y125.765 E2.80914
G1 X140.785 Y125.096 E2.81863
G1 X140.591 Y124.401 E2.82814
G1 X140.475 Y123.689 E2.83763
G1 X140.439 Y123 E2.84672
G1 X140.441 Y116.992 E2.92583
G1 X140.481 Y116.272 E2.93532
G1 X140.601 Y115.56 E2.94483
G1 X140.798 Y114.866 E2.95433
G1 X141.147 Y114.036 E2.96619
G1 X141.486 Y113.399 E2.97569
G1 X141.894 Y112.804 E2.98519
G1 X142.365 Y112.257 E2.99469
G1 X142.916 Y111.749 E3.00456
G1 X142.351 Y111.228 E3.01468
G1 X141.882 Y110.68 E3.02418
G1 X141.476 Y110.083 E3.03368
G1 X141.054 Y109.265 E3.0458
G1 X140.785 Y108.596 E3.0553
G1 X140.591 Y107.901 E3.0648
G1 X140.475 Y107.189 E3.0743
G1 X140.439 Y106.5 E3.08338
G1 X140.441 Y100.492 E3.16249
G1 X140.481 Y99.772 E3.17199
G1 X140.601 Y99.06 E3.18149
G1 X140.798 Y98.366 E3.19099
G1 X141.147 Y97.536 E3.20285
G1 X141.486 Y96.899 E3.21235
G1 X141.894 Y96.304 E3.22185
G1 X142.365 Y95.757 E3.23136
G1 X142.893 Y95.266 E3.24085
G1 X143.473 Y94.837 E3.25035
G1 X144.096 Y94.474 E3.25984
G1 X144.972 Y94.102 E3.27237
G1 X145.661 Y93.887 E3.28188
G1 X146.369 Y93.75 E3.29137
G1 X147.251 Y93.69 E3.30301
G1 X182.749 Y93.689 E3.77043
G1 X183.469 Y93.729 E3.77993
G1 X184.181 Y93.848 E3.78943
G1 X185.065 Y94.115 E3.80159
G1 X185.921 Y94.484 E3.81386
G1 X186.544 Y94.848 E3.82336
G1 X187.122 Y95.28 E3.83287
G1 X187.649 Y95.772 E3.84236
G1 X188.118 Y96.32 E3.85186
G1 X188.524 Y96.917 E3.86136
G1 X188.946 Y97.735 E3.87348
G1 X189.215 Y98.404 E3.88298
G1 X189.409 Y99.099 E3.89248
G1 X189.525 Y99.811 E3.90198
G1 X189.561 Y100.5 E3.91106
G1 X189.559 Y106.508 E3.99017
G1 X189.519 Y107.228 E3.99967
G1 X189.399 Y107.94 E4.00917
G1 X189.202 Y108.634 E4.01867
G1 X188.853 Y109.464 E4.03053
G1 X188.514 Y110.101 E4.04003
G1 X188.106 Y110.696 E4.04953
G1 X187.635 Y111.243 E4.05904
G1 X187.084 Y111.751 E4.0689
G1 X187.649 Y112.272 E4.07902
G1 X188.118 Y112.82 E4.08852
G1 X188.524 Y113.417 E4.09803
G1 X188.946 Y114.235 E4.11015
G1 X189.215 Y114.904 E4.11964
G1 X189.409 Y115.599 E4.12914
G1 X189.525 Y116.311 E4.13864
G1 X189.561 Y117 E4.14773
G1 X189.559 Y123.008 E4.22684
G1 X189.519 Y123.728 E4.23633
G1 X189.399 Y124.44 E4.24584
G1 X189.202 Y125.134 E4.25534
G1 X188.853 Y125.964 E4.26719
G1 X188.514 Y126.601 E4.2767
G1 X188.106 Y127.196 E4.28619
M204 S625
M205 X10 Y10
G0 F1285.7 X187.745 Y126.976
M204 S500
M205 X5 Y5
G1 F600 X187.285 Y127.5 E4.29538
G1 X186.768 Y127.969 E4.30457
G1 X186.2 Y128.374 E4.31375
G1 X185.59 Y128.713 E4.32294
G1 X184.881 Y129.005 E4.33304
G1 X184.215 Y129.211 E4.34222
G1 X183.529 Y129.34 E4.35141
G1 X182.749 Y129.39 E4.3617
G1 X147.251 Y129.391 E4.82912
G1 X146.555 Y129.351 E4.8383
G1 X145.867 Y129.232 E4.84749
G1 X144.887 Y128.917 E4.86104
G1 X144.25 Y128.632 E4.87023
G1 X143.65 Y128.276 E4.87942
G1 X143.095 Y127.854 E4.8886
G1 X142.592 Y127.371 E4.89778
G1 X142.147 Y126.833 E4.90698
G1 X141.767 Y126.248 E4.91616
G1 X141.435 Y125.587 E4.9259
G1 X141.175 Y124.939 E4.93509
G1 X140.992 Y124.266 E4.94428
G1 X140.886 Y123.576 E4.95347
G1 X140.859 Y123 E4.96106
G1 X140.861 Y116.992 E5.04017
G1 X140.901 Y116.295 E5.04936
G1 X141.021 Y115.608 E5.05855
G1 X141.218 Y114.939 E5.06773
G1 X141.528 Y114.212 E5.07814
G1 X141.857 Y113.597 E5.08732
G1 X142.255 Y113.024 E5.09651
G1 X142.715 Y112.5 E5.10569
G1 X143.232 Y112.031 E5.11488
G1 X143.621 Y111.754 E5.12117
G1 X143.095 Y111.354 E5.12987
G1 X142.592 Y110.871 E5.13905
G1 X142.147 Y110.333 E5.14824
G1 X141.767 Y109.748 E5.15743
G1 X141.435 Y109.087 E5.16717
G1 X141.175 Y108.439 E5.17636
G1 X140.992 Y107.766 E5.18555
G1 X140.886 Y107.076 E5.19474
G1 X140.859 Y106.5 E5.20233
G1 X140.861 Y100.492 E5.28144
G1 X140.901 Y99.795 E5.29063
G1 X141.021 Y99.108 E5.29982
G1 X141.218 Y98.439 E5.309
G1 X141.528 Y97.712 E5.31941
G1 X141.857 Y97.097 E5.32859
G1 X142.255 Y96.524 E5.33778
G1 X142.715 Y96 E5.34696
G1 X143.232 Y95.531 E5.35615
G1 X143.8 Y95.126 E5.36534
G1 X144.41 Y94.787 E5.37452
G1 X145.119 Y94.495 E5.38462
G1 X145.785 Y94.289 E5.3938
G1 X146.471 Y94.16 E5.40299
G1 X147.251 Y94.11 E5.41328
G1 X182.749 Y94.109 E5.8807
G1 X183.445 Y94.149 E5.88988
G1 X184.133 Y94.268 E5.89907
G1 X185.113 Y94.583 E5.91263
G1 X185.75 Y94.868 E5.92182
G1 X186.35 Y95.224 E5.931
G1 X186.905 Y95.646 E5.94018
G1 X187.408 Y96.129 E5.94936
G1 X187.853 Y96.667 E5.95856
G1 X188.233 Y97.252 E5.96774
G1 X188.565 Y97.913 E5.97748
G1 X188.825 Y98.561 E5.98668
G1 X189.008 Y99.234 E5.99586
G1 X189.114 Y99.924 E6.00505
G1 X189.141 Y100.5 E6.01265
G1 X189.139 Y106.508 E6.09175
G1 X189.099 Y107.205 E6.10095
G1 X188.979 Y107.892 E6.11013
G1 X188.782 Y108.561 E6.11931
G1 X188.472 Y109.288 E6.12972
G1 X188.143 Y109.903 E6.1389
G1 X187.745 Y110.476 E6.14809
G1 X187.285 Y111 E6.15727
G1 X186.768 Y111.469 E6.16646
G1 X186.379 Y111.746 E6.17275
G1 X186.905 Y112.146 E6.18145
G1 X187.408 Y112.629 E6.19063
G1 X187.853 Y113.167 E6.19983
G1 X188.233 Y113.752 E6.20901
G1 X188.565 Y114.413 E6.21875
G1 X188.825 Y115.061 E6.22795
G1 X189.008 Y115.734 E6.23713
G1 X189.114 Y116.424 E6.24632
G1 X189.141 Y117 E6.25391
G1 X189.139 Y123.008 E6.33302
G1 X189.099 Y123.705 E6.34222
G1 X188.979 Y124.392 E6.3514
G1 X188.782 Y125.061 E6.36058
G1 X188.472 Y125.788 E6.37099
G1 X188.143 Y126.403 E6.38017
G1 X187.745 Y126.976 E6.38936
M204 S625
M205 X10 Y10
G0 F1285.7 X187.385 Y126.755
M204 S500
M205 X5 Y5
G1 F600 X186.936 Y127.256 E6.39822
G1 X186.43 Y127.7 E6.40708
G1 X185.875 Y128.081 E6.41595
G1 X184.932 Y128.537 E6.42974
G1 X184.091 Y128.809 E6.44138
G1 X183.428 Y128.929 E6.45025
G1 X182.749 Y128.97 E6.45921
G1 X147.251 Y128.971 E6.92662
G1 X146.579 Y128.931 E6.93549
G1 X145.917 Y128.812 E6.94434
G1 X145.037 Y128.525 E6.95653
G1 X144.423 Y128.249 E6.9654
G1 X143.846 Y127.901 E6.97427
G1 X143.315 Y127.488 E6.98313
G1 X142.836 Y127.015 E6.99199
G1 X142.416 Y126.488 E7.00086
G1 X141.92 Y125.633 E7.01388
G1 X141.566 Y124.783 E7.026
G1 X141.393 Y124.133 E7.03486
G1 X141.298 Y123.466 E7.04373
G1 X141.279 Y123 E7.04987
G1 X141.281 Y116.992 E7.12898
G1 X141.321 Y116.32 E7.13785
G1 X141.441 Y115.658 E7.1467
G1 X141.638 Y115.014 E7.15557
G1 X141.909 Y114.389 E7.16454
G1 X142.228 Y113.796 E7.17341
G1 X142.615 Y113.245 E7.18227
G1 X143.064 Y112.744 E7.19113
G1 X143.57 Y112.3 E7.2
G1 X144.125 Y111.919 E7.20886
G1 X144.423 Y111.749 E7.21338
G1 X143.846 Y111.401 E7.22225
G1 X143.315 Y110.988 E7.23111
G1 X142.836 Y110.515 E7.23997
G1 X142.416 Y109.988 E7.24885
G1 X141.92 Y109.133 E7.26186
G1 X141.566 Y108.283 E7.27399
G1 X141.393 Y107.633 E7.28284
G1 X141.298 Y106.966 E7.29171
G1 X141.279 Y106.5 E7.29785
G1 X141.281 Y100.492 E7.37696
G1 X141.321 Y99.82 E7.38583
G1 X141.441 Y99.158 E7.39469
G1 X141.638 Y98.514 E7.40355
G1 X141.909 Y97.889 E7.41252
G1 X142.228 Y97.296 E7.42139
G1 X142.615 Y96.745 E7.43026
G1 X143.064 Y96.244 E7.43912
G1 X143.57 Y95.8 E7.44798
G1 X144.125 Y95.419 E7.45684
G1 X145.068 Y94.963 E7.47064
G1 X145.909 Y94.691 E7.48227
G1 X146.572 Y94.571 E7.49115
G1 X147.251 Y94.53 E7.5001
G1 X182.749 Y94.529 E7.96752
G1 X183.421 Y94.569 E7.97638
G1 X184.083 Y94.688 E7.98524
G1 X184.963 Y94.975 E7.99743
G1 X185.577 Y95.251 E8.00629
G1 X186.154 Y95.599 E8.01516
G1 X186.685 Y96.012 E8.02402
G1 X187.164 Y96.485 E8.03289
G1 X187.584 Y97.012 E8.04176
G1 X188.08 Y97.867 E8.05478
G1 X188.434 Y98.717 E8.0669
G1 X188.607 Y99.367 E8.07576
G1 X188.702 Y100.034 E8.08463
G1 X188.721 Y100.5 E8.09077
G1 X188.719 Y106.508 E8.16988
G1 X188.679 Y107.18 E8.17874
G1 X188.559 Y107.842 E8.1876
G1 X188.362 Y108.486 E8.19647
G1 X188.091 Y109.111 E8.20544
G1 X187.772 Y109.704 E8.2143
G1 X187.385 Y110.255 E8.22317
G1 X186.936 Y110.756 E8.23203
G1 X186.43 Y111.2 E8.24089
G1 X185.875 Y111.581 E8.24976
G1 X185.577 Y111.751 E8.25428
G1 X186.154 Y112.099 E8.26315
G1 X186.685 Y112.512 E8.27201
G1 X187.164 Y112.985 E8.28087
G1 X187.584 Y113.512 E8.28974
G1 X188.08 Y114.367 E8.30276
G1 X188.434 Y115.217 E8.31488
G1 X188.607 Y115.867 E8.32374
G1 X188.702 Y116.534 E8.33261
G1 X188.721 Y117 E8.33875
G1 X188.719 Y123.008 E8.41786
G1 X188.679 Y123.68 E8.42673
G1 X188.559 Y124.342 E8.43558
G1 X188.362 Y124.986 E8.44445
G1 X188.091 Y125.611 E8.45342
G1 X187.772 Y126.204 E8.46229
G1 X187.385 Y126.755 E8.47115
M204 S625
M205 X10 Y10
G0 F1285.7 X187.026 Y126.531
M204 S500
M205 X5 Y5
G1 F600 X186.588 Y127.009 E8.47969
G1 X186.094 Y127.428 E8.48822
G1 X185.553 Y127.784 E8.49675
G1 X184.785 Y128.144 E8.50792
G1 X183.967 Y128.407 E8.51923
G1 X183.329 Y128.518 E8.52776
G1 X182.749 Y128.55 E8.53541
G1 X147.251 Y128.551 E9.00282
G1 X146.605 Y128.511 E9.01134
G1 X145.968 Y128.392 E9.01988
G1 X145.186 Y128.132 E9.03073
G1 X144.596 Y127.865 E9.03926
G1 X144.043 Y127.527 E9.04779
G1 X143.537 Y127.124 E9.05631
G1 X143.084 Y126.661 E9.06484
G1 X142.691 Y126.146 E9.07337
G1 X142.195 Y125.23 E9.08708
G1 X141.957 Y124.628 E9.09561
G1 X141.795 Y124.001 E9.10413
G1 X141.699 Y123 E9.11737
G1 X141.701 Y116.992 E9.19648
G1 X141.741 Y116.346 E9.20501
G1 X141.861 Y115.709 E9.21354
G1 X142.188 Y114.786 E9.22643
G1 X142.598 Y113.996 E9.23815
G1 X142.974 Y113.469 E9.24668
G1 X143.412 Y112.991 E9.25522
G1 X143.906 Y112.572 E9.26375
G1 X144.447 Y112.216 E9.27227
G1 X145.215 Y111.856 E9.28344
G1 X145.518 Y111.75 E9.28767
G1 X144.596 Y111.365 E9.30082
G1 X144.043 Y111.027 E9.30936
G1 X143.537 Y110.624 E9.31788
G1 X143.084 Y110.161 E9.3264
G1 X142.691 Y109.646 E9.33493
G1 X142.195 Y108.73 E9.34865
G1 X141.957 Y108.128 E9.35717
G1 X141.795 Y107.501 E9.3657
G1 X141.699 Y106.5 E9.37894
G1 X141.701 Y100.492 E9.45805
G1 X141.741 Y99.846 E9.46658
G1 X141.861 Y99.209 E9.47511
G1 X142.188 Y98.286 E9.488
G1 X142.598 Y97.496 E9.49972
G1 X142.974 Y96.969 E9.50825
G1 X143.412 Y96.491 E9.51678
G1 X143.906 Y96.072 E9.52531
G1 X144.447 Y95.716 E9.53384
G1 X145.215 Y95.356 E9.54501
G1 X146.033 Y95.093 E9.55632
G1 X146.671 Y94.982 E9.56485
G1 X147.251 Y94.95 E9.5725
G1 X182.749 Y94.949 E10.03992
G1 X183.395 Y94.989 E10.04844
G1 X184.032 Y95.108 E10.05697
G1 X184.814 Y95.368 E10.06782
G1 X185.404 Y95.635 E10.07635
G1 X185.957 Y95.973 E10.08488
G1 X186.463 Y96.376 E10.0934
G1 X186.916 Y96.839 E10.10193
G1 X187.309 Y97.354 E10.11046
G1 X187.805 Y98.27 E10.12418
G1 X188.043 Y98.872 E10.1327
G1 X188.205 Y99.499 E10.14123
G1 X188.301 Y100.5 E10.15447
G1 X188.299 Y106.508 E10.23358
G1 X188.259 Y107.154 E10.2421
G1 X188.139 Y107.791 E10.25064
G1 X187.812 Y108.714 E10.26353
G1 X187.402 Y109.504 E10.27525
G1 X187.026 Y110.031 E10.28377
G1 X186.588 Y110.509 E10.29231
G1 X186.094 Y110.928 E10.30084
G1 X185.553 Y111.284 E10.30937
G1 X184.785 Y111.644 E10.32054
G1 X184.482 Y111.75 E10.32476
G1 X185.404 Y112.135 E10.33792
G1 X185.957 Y112.473 E10.34645
G1 X186.463 Y112.876 E10.35497
G1 X186.916 Y113.339 E10.3635
G1 X187.309 Y113.854 E10.37203
G1 X187.805 Y114.77 E10.38575
G1 X188.043 Y115.372 E10.39427
G1 X188.205 Y115.999 E10.4028
G1 X188.301 Y117 E10.41604
G1 X188.299 Y123.008 E10.49515
G1 X188.259 Y123.654 E10.50367
G1 X188.139 Y124.291 E10.5122
G1 X187.812 Y125.214 E10.5251
G1 X187.402 Y126.004 E10.53682
G1 X187.026 Y126.531 E10.54534
M204 S625
M205 X10 Y10
G0 F1285.7 X186.667 Y126.306
M204 S500
M205 X5 Y5
G1 F600 X186.241 Y126.758 E10.55352
G1 X185.76 Y127.152 E10.56171
G1 X185.233 Y127.481 E10.56989
G1 X184.44 Y127.824 E10.58126
G1 X183.845 Y128.004 E10.58945
G1 X183.232 Y128.106 E10.59763
G1 X182.749 Y128.13 E10.604
