;FLAVOR:UltiGCode
;TIME:4418
;MATERIAL:8649
;MATERIAL2:0
;NOZZLE_DIAMETER:0.4
;MINX:85.593
;MINY:100
;MINZ:0.3
;MAXX:137.407
;MAXY:149.502
;MAXZ:22.95
;Generated with Cura_SteamEngine 4.11.0
M82 ;absolute extrusion mode
G0 F3000 Y50 ;avoid prime blob
G92 E0
G92 E0
G10
;LAYER_COUNT:152
;LAYER:0
M107
G0 F3600 X88.476 Y101.937 Z0.3
;TYPE:SKIRT
G11
G1 F1800 X89.105 Y101.46 E0.09473
G1 X89.779 Y101.048 E0.18952
G1 X90.278 Y100.8 E0.25639
G1 X90.494 Y100.702 E0.28485
G1 X91.229 Y100.412 E0.37967
G1 X91.989 Y100.199 E0.47439
G1 X92.719 Y100.069 E0.56336
G1 X92.75 Y100.065 E0.56711
G1 X93.748 Y100.001 E0.68712
G1 X129.262 Y100 E4.9488
G1 X130.05 Y100.04 E5.04348
G1 X130.831 Y100.159 E5.13828
G1 X131.596 Y100.357 E5.23311
G1 X132.131 Y100.547 E5.30124
G1 X132.356 Y100.636 E5.33027
G1 X133.075 Y100.963 E5.42506
G1 X133.757 Y101.361 E5.51981
G1 X134.395 Y101.827 E5.61462
G1 X134.983 Y102.354 E5.70937
G1 X135.514 Y102.938 E5.80409
G1 X135.984 Y103.573 E5.89889
G1 X136.47 Y104.413 E6.01535
G1 X136.583 Y104.64 E6.04578
G1 X136.898 Y105.364 E6.14052
G1 X137.139 Y106.116 E6.23528
G1 X137.264 Y106.663 E6.30262
G1 X137.375 Y107.445 E6.3974
G1 X137.407 Y108.152 E6.48232
G1 X137.407 Y114.176 E7.2052
G1 X137.367 Y114.965 E7.30001
G1 X137.185 Y116.024 E7.42895
G1 X137.175 Y116.065 E7.43401
G1 X136.949 Y116.822 E7.52881
G1 X136.566 Y117.72 E7.64597
G1 X136.468 Y117.915 E7.67216
G1 X136.079 Y118.601 E7.76679
G1 X135.621 Y119.245 E7.86162
G1 X135.101 Y119.839 E7.95635
G1 X134.524 Y120.378 E8.0511
G1 X133.895 Y120.855 E8.14583
G1 X133.221 Y121.267 E8.24063
G1 X132.722 Y121.515 E8.3075
G1 X132.506 Y121.613 E8.33596
G1 X131.771 Y121.903 E8.43078
G1 X131.011 Y122.116 E8.52549
G1 X130.281 Y122.246 E8.61447
G1 X130.25 Y122.25 E8.61822
G1 X129.252 Y122.314 E8.73822
G1 X93.733 Y122.315 E13.0005
G1 X92.945 Y122.275 E13.09519
G1 X91.979 Y122.115 E13.21269
G1 X91.94 Y122.106 E13.21749
G1 X91.181 Y121.89 E13.31219
G1 X90.376 Y121.565 E13.41636
G1 X90.193 Y121.479 E13.44062
G1 X89.497 Y121.108 E13.53527
G1 X88.841 Y120.668 E13.63006
G1 X88.233 Y120.163 E13.7249
G1 X87.68 Y119.6 E13.8196
G1 X87.186 Y118.984 E13.91436
G1 X86.757 Y118.321 E14.00912
G1 X86.423 Y117.686 E14.09522
G1 X86.107 Y116.963 E14.1899
G1 X85.864 Y116.211 E14.28474
G1 X85.736 Y115.651 E14.35367
G1 X85.625 Y114.869 E14.44845
G1 X85.593 Y114.162 E14.53338
G1 X85.593 Y108.139 E15.25614
G1 X85.633 Y107.35 E15.35094
G1 X85.815 Y106.291 E15.47988
G1 X85.825 Y106.25 E15.48494
G1 X86.051 Y105.493 E15.57975
G1 X86.434 Y104.595 E15.6969
G1 X86.532 Y104.4 E15.72309
G1 X86.921 Y103.714 E15.81772
G1 X87.379 Y103.07 E15.91255
G1 X87.899 Y102.476 E16.00729
G1 X88.476 Y101.937 E16.10204
G0 F3600 X88.795 Y102.192
G1 F1800 X89.414 Y101.734 E16.19444
G1 X90.076 Y101.343 E16.2867
G1 X90.66 Y101.066 E16.36426
G1 X91.376 Y100.785 E16.45656
G1 X92.117 Y100.58 E16.54882
G1 X92.801 Y100.462 E16.63212
G1 X93.748 Y100.401 E16.74599
G1 X129.262 Y100.4 E21.00767
G1 X130.03 Y100.44 E21.09996
G1 X130.79 Y100.559 E21.19227
G1 X131.533 Y100.757 E21.28454
G1 X132.209 Y101.008 E21.37107
G1 X132.908 Y101.327 E21.46327
G1 X133.571 Y101.718 E21.55564
G1 X134.19 Y102.175 E21.64797
G1 X134.757 Y102.694 E21.74021
G1 X135.268 Y103.269 E21.83252
G1 X135.716 Y103.894 E21.9248
G1 X136.112 Y104.591 E22.02099
G1 X136.225 Y104.818 E22.05142
G1 X136.531 Y105.524 E22.14376
G1 X136.763 Y106.257 E22.23602
G1 X136.871 Y106.74 E22.29541
G1 X136.978 Y107.501 E22.38763
G1 X137.007 Y108.152 E22.46582
G1 X137.007 Y114.176 E23.1887
G1 X136.967 Y114.944 E23.28099
G1 X136.796 Y115.929 E23.40096
G1 X136.786 Y115.97 E23.40602
G1 X136.565 Y116.707 E23.49835
G1 X136.209 Y117.54 E23.60706
G1 X136.111 Y117.735 E23.63325
G1 X135.73 Y118.403 E23.72553
G1 X135.282 Y119.029 E23.8179
G1 X134.772 Y119.604 E23.91013
G1 X134.205 Y120.123 E24.00237
G1 X133.586 Y120.581 E24.09478
G1 X132.924 Y120.972 E24.18704
G1 X132.34 Y121.249 E24.2646
G1 X131.624 Y121.53 E24.3569
G1 X130.883 Y121.735 E24.44916
G1 X130.199 Y121.853 E24.53245
G1 X129.252 Y121.914 E24.64633
G1 X93.733 Y121.915 E28.90861
G1 X92.965 Y121.875 E29.00089
G1 X92.069 Y121.725 E29.10991
G1 X92.03 Y121.716 E29.11471
G1 X91.291 Y121.505 E29.20694
G1 X90.547 Y121.203 E29.30329
G1 X90.364 Y121.117 E29.32756
G1 X89.685 Y120.754 E29.41995
G1 X89.049 Y120.323 E29.51214
G1 X88.46 Y119.828 E29.60447
G1 X87.926 Y119.275 E29.69672
G1 X87.452 Y118.669 E29.78904
G1 X86.892 Y117.729 E29.92034
G1 X86.781 Y117.507 E29.95013
G1 X86.473 Y116.802 E30.04245
G1 X86.241 Y116.069 E30.13471
G1 X86.129 Y115.574 E30.19561
G1 X86.022 Y114.813 E30.28783
G1 X85.993 Y114.162 E30.36602
G1 X85.993 Y108.139 E31.08878
G1 X86.033 Y107.371 E31.18107
G1 X86.204 Y106.386 E31.30104
G1 X86.214 Y106.345 E31.3061
G1 X86.435 Y105.608 E31.39843
G1 X86.791 Y104.775 E31.50714
G1 X86.889 Y104.58 E31.53333
G1 X87.27 Y103.912 E31.62561
G1 X87.718 Y103.286 E31.71798
G1 X88.228 Y102.711 E31.81021
G1 X88.795 Y102.192 E31.90245
G0 F3600 X89.113 Y102.449
G1 F1800 X89.721 Y102.012 E31.9923
G1 X90.609 Y101.528 E32.11367
G1 X90.825 Y101.43 E32.14213
G1 X91.522 Y101.158 E32.23191
G1 X92.243 Y100.962 E32.32157
G1 X92.852 Y100.859 E32.39569
G1 X93.748 Y100.801 E32.50343
G1 X129.262 Y100.8 E36.76511
G1 X130.009 Y100.84 E36.85488
G1 X130.747 Y100.959 E36.94459
G1 X131.469 Y101.157 E37.03443
G1 X132.062 Y101.38 E37.11045
G1 X132.742 Y101.692 E37.20023
G1 X133.384 Y102.074 E37.28988
G1 X133.983 Y102.523 E37.37971
G1 X134.53 Y103.034 E37.46953
G1 X135.019 Y103.6 E37.55929
G1 X135.445 Y104.215 E37.64907
G1 X135.754 Y104.77 E37.72529
G1 X135.867 Y104.997 E37.75572
G1 X136.164 Y105.683 E37.84543
G1 X136.386 Y106.397 E37.93515
G1 X136.478 Y106.816 E37.98663
G1 X136.582 Y107.557 E38.07642
G1 X136.607 Y108.152 E38.14789
G1 X136.607 Y114.176 E38.87077
G1 X136.567 Y114.923 E38.96053
G1 X136.408 Y115.835 E39.07162
G1 X136.398 Y115.876 E39.07669
G1 X136.182 Y116.592 E39.16643
G1 X135.852 Y117.36 E39.26674
G1 X135.754 Y117.555 E39.29293
G1 X135.382 Y118.205 E39.3828
G1 X134.944 Y118.811 E39.47253
G1 X134.444 Y119.367 E39.56226
G1 X133.887 Y119.866 E39.652
G1 X133.279 Y120.303 E39.74185
G1 X132.391 Y120.787 E39.86321
G1 X132.175 Y120.885 E39.89167
G1 X131.478 Y121.157 E39.98145
G1 X130.757 Y121.353 E40.07111
G1 X130.148 Y121.456 E40.14523
G1 X129.252 Y121.514 E40.25298
G1 X93.733 Y121.515 E44.51526
G1 X92.986 Y121.475 E44.60502
G1 X92.159 Y121.336 E44.70566
G1 X92.12 Y121.327 E44.71046
G1 X91.401 Y121.12 E44.80024
G1 X90.717 Y120.841 E44.88889
G1 X90.534 Y120.755 E44.91315
G1 X89.875 Y120.401 E45.00292
G1 X89.257 Y119.979 E45.09272
G1 X88.688 Y119.494 E45.18244
G1 X88.174 Y118.95 E45.27225
G1 X87.721 Y118.355 E45.36199
G1 X87.25 Y117.55 E45.47391
G1 X87.139 Y117.328 E45.50369
G1 X86.841 Y116.642 E45.59344
G1 X86.617 Y115.929 E45.68313
G1 X86.522 Y115.498 E45.73609
G1 X86.418 Y114.757 E45.82588
G1 X86.393 Y114.162 E45.89734
G1 X86.393 Y108.139 E46.6201
G1 X86.433 Y107.392 E46.70987
G1 X86.592 Y106.48 E46.82096
G1 X86.602 Y106.439 E46.82603
G1 X86.818 Y105.723 E46.91577
G1 X87.148 Y104.955 E47.01608
G1 X87.246 Y104.76 E47.04227
G1 X87.618 Y104.11 E47.13214
G1 X88.056 Y103.504 E47.22187
G1 X88.556 Y102.948 E47.3116
G1 X89.113 Y102.449 E47.40134
G0 F3600 X89.43 Y102.708
G1 F1800 X90.026 Y102.292 E47.48855
G1 X90.774 Y101.893 E47.59029
G1 X90.99 Y101.795 E47.61875
G1 X91.667 Y101.531 E47.70595
G1 X92.369 Y101.344 E47.79312
G1 X92.903 Y101.255 E47.85809
G1 X93.748 Y101.201 E47.9597
G1 X129.262 Y101.2 E52.22138
G1 X129.987 Y101.24 E52.30851
G1 X130.704 Y101.359 E52.39572
G1 X131.69 Y101.663 E52.51954
G1 X131.915 Y101.752 E52.54858
G1 X132.574 Y102.056 E52.63567
G1 X133.197 Y102.43 E52.72286
G1 X133.774 Y102.871 E52.81001
G1 X134.3 Y103.372 E52.89718
G1 X134.767 Y103.929 E52.9844
G1 X135.17 Y104.533 E53.07154
G1 X135.508 Y105.175 E53.1586
G1 X135.796 Y105.842 E53.24578
G1 X136.079 Y106.856 E53.37211
G1 X136.086 Y106.892 E53.37651
G1 X136.185 Y107.612 E53.46373
G1 X136.207 Y108.152 E53.52858
G1 X136.207 Y114.176 E54.25146
G1 X136.167 Y114.901 E54.33859
G1 X136.019 Y115.74 E54.44083
G1 X136.009 Y115.781 E54.44589
G1 X135.798 Y116.476 E54.53305
G1 X135.494 Y117.181 E54.62518
G1 X135.396 Y117.376 E54.65137
G1 X135.035 Y118.006 E54.7385
G1 X134.606 Y118.592 E54.82565
G1 X134.116 Y119.128 E54.9128
G1 X133.57 Y119.607 E54.99996
G1 X132.974 Y120.023 E55.08718
G1 X132.226 Y120.422 E55.18891
G1 X132.01 Y120.52 E55.21737
G1 X131.333 Y120.784 E55.30457
G1 X130.631 Y120.971 E55.39175
G1 X130.097 Y121.06 E55.45671
G1 X129.252 Y121.114 E55.55832
G1 X93.733 Y121.115 E59.8206
G1 X93.008 Y121.075 E59.90773
G1 X92.249 Y120.946 E60.00012
G1 X92.21 Y120.937 E60.00492
G1 X91.512 Y120.735 E60.09212
G1 X90.887 Y120.479 E60.17316
G1 X90.704 Y120.393 E60.19743
G1 X90.064 Y120.049 E60.28462
G1 X89.467 Y119.636 E60.37173
G1 X88.918 Y119.16 E60.45893
G1 X88.425 Y118.626 E60.54614
G1 X87.994 Y118.042 E60.63324
G1 X87.608 Y117.372 E60.72603
G1 X87.497 Y117.15 E60.75581
G1 X87.208 Y116.483 E60.84304
G1 X86.921 Y115.458 E60.97077
G1 X86.914 Y115.422 E60.97517
G1 X86.815 Y114.702 E61.06238
G1 X86.793 Y114.162 E61.12724
G1 X86.793 Y108.139 E61.85
G1 X86.833 Y107.414 E61.93713
G1 X86.981 Y106.575 E62.03937
G1 X86.991 Y106.534 E62.04443
G1 X87.202 Y105.839 E62.13159
G1 X87.506 Y105.134 E62.22372
G1 X87.604 Y104.939 E62.24991
G1 X87.965 Y104.309 E62.33704
G1 X88.394 Y103.723 E62.42419
G1 X88.884 Y103.187 E62.51134
G1 X89.43 Y102.708 E62.5985
G0 F3600 X89.746 Y102.97
G1 F1800 X90.329 Y102.576 E62.68293
G1 X90.939 Y102.257 E62.76554
G1 X91.155 Y102.159 E62.794
G1 X91.812 Y101.905 E62.87853
G1 X92.493 Y101.727 E62.96299
G1 X92.955 Y101.652 E63.01916
G1 X93.748 Y101.601 E63.11452
G1 X129.262 Y101.6 E67.3762
G1 X129.965 Y101.64 E67.46069
G1 X130.658 Y101.759 E67.54507
G1 X131.543 Y102.035 E67.65631
G1 X131.768 Y102.124 E67.68535
G1 X132.406 Y102.419 E67.7697
G1 X133.008 Y102.786 E67.8543
G1 X133.563 Y103.218 E67.9387
G1 X134.067 Y103.71 E68.02322
G1 X134.511 Y104.256 E68.10767
G1 X135.037 Y105.126 E68.22967
G1 X135.15 Y105.353 E68.2601
G1 X135.428 Y106 E68.3446
G1 X135.686 Y106.933 E68.46076
G1 X135.693 Y106.969 E68.46516
G1 X135.788 Y107.666 E68.54958
G1 X135.807 Y108.152 E68.60794
G1 X135.807 Y114.176 E69.33082
G1 X135.767 Y114.879 E69.41532
G1 X135.63 Y115.645 E69.5087
G1 X135.62 Y115.686 E69.51376
G1 X135.415 Y116.359 E69.59818
G1 X135.137 Y117.001 E69.68214
G1 X135.039 Y117.196 E69.70832
G1 X134.687 Y117.806 E69.79284
G1 X134.269 Y118.372 E69.87727
G1 X133.789 Y118.888 E69.96184
G1 X133.254 Y119.345 E70.04627
G1 X132.671 Y119.739 E70.13071
G1 X132.061 Y120.058 E70.21332
G1 X131.845 Y120.156 E70.24178
G1 X131.188 Y120.41 E70.32631
G1 X130.507 Y120.588 E70.41077
G1 X130.045 Y120.663 E70.46694
G1 X129.252 Y120.714 E70.5623
G1 X93.733 Y120.715 E74.82458
G1 X93.03 Y120.675 E74.90907
G1 X92.339 Y120.556 E74.99321
G1 X92.3 Y120.547 E74.99802
G1 X91.624 Y120.35 E75.08251
G1 X91.057 Y120.117 E75.15607
G1 X90.874 Y120.031 E75.18033
G1 X90.255 Y119.696 E75.2648
G1 X89.678 Y119.293 E75.34925
G1 X89.15 Y118.827 E75.43376
G1 X88.679 Y118.304 E75.51822
G1 X88.269 Y117.731 E75.60277
G1 X87.966 Y117.193 E75.67686
G1 X87.855 Y116.971 E75.70665
G1 X87.576 Y116.324 E75.7912
G1 X87.314 Y115.381 E75.90864
G1 X87.307 Y115.345 E75.91304
G1 X87.212 Y114.648 E75.99746
G1 X87.193 Y114.162 E76.05582
G1 X87.193 Y108.139 E76.77858
G1 X87.233 Y107.436 E76.86308
G1 X87.37 Y106.67 E76.95646
G1 X87.38 Y106.629 E76.96152
G1 X87.585 Y105.956 E77.04595
G1 X87.863 Y105.314 E77.1299
G1 X87.961 Y105.119 E77.15609
G1 X88.313 Y104.509 E77.2406
G1 X88.731 Y103.943 E77.32503
G1 X89.211 Y103.427 E77.4096
G1 X89.746 Y102.97 E77.49404
G0 F3600 X89.536 Y103.67
G1 F1800 X90.059 Y103.234 E77.57574
G1 X90.63 Y102.863 E77.65746
G1 X91.105 Y102.621 E77.72143
G1 X91.321 Y102.523 E77.74989
G1 X91.956 Y102.279 E77.83152
G1 X92.616 Y102.11 E77.91328
G1 X93.006 Y102.049 E77.96065
G1 X93.748 Y102.001 E78.04987
G1 X129.262 Y102 E82.31155
G1 X129.942 Y102.04 E82.3933
G1 X130.612 Y102.159 E82.47495
G1 X131.395 Y102.407 E82.57351
G1 X131.62 Y102.496 E82.60255
G1 X132.238 Y102.783 E82.68432
G1 X132.817 Y103.14 E82.76594
G1 X133.351 Y103.563 E82.84769
G1 X133.831 Y104.046 E82.9294
G1 X134.251 Y104.581 E83.01102
G1 X134.679 Y105.304 E83.11185
G1 X134.792 Y105.531 E83.14227
G1 X135.059 Y106.158 E83.22405
G1 X135.293 Y107.009 E83.32996
G1 X135.3 Y107.045 E83.33436
G1 X135.391 Y107.72 E83.4161
G1 X135.407 Y108.152 E83.46797
G1 X135.407 Y114.176 E84.19085
G1 X135.367 Y114.856 E84.27259
G1 X135.242 Y115.55 E84.35721
G1 X135.232 Y115.591 E84.36228
G1 X135.032 Y116.242 E84.444
G1 X134.779 Y116.821 E84.51982
G1 X134.681 Y117.016 E84.54601
G1 X134.34 Y117.606 E84.62779
G1 X133.933 Y118.151 E84.70941
G1 X133.464 Y118.645 E84.79115
G1 X132.941 Y119.081 E84.87286
G1 X132.37 Y119.452 E84.95457
G1 X131.895 Y119.694 E85.01855
G1 X131.679 Y119.792 E85.04701
G1 X131.044 Y120.036 E85.12864
G1 X130.384 Y120.205 E85.2104
G1 X129.994 Y120.266 E85.25776
G1 X129.252 Y120.314 E85.34699
G1 X93.733 Y120.315 E89.60927
G1 X93.053 Y120.275 E89.69101
G1 X92.429 Y120.166 E89.76703
G1 X92.39 Y120.157 E89.77183
G1 X91.737 Y119.966 E89.85347
G1 X91.227 Y119.755 E89.9197
G1 X91.044 Y119.669 E89.94397
G1 X90.446 Y119.344 E90.02564
G1 X89.89 Y118.951 E90.10734
G1 X89.384 Y118.495 E90.18908
G1 X88.935 Y117.984 E90.27071
G1 X88.549 Y117.423 E90.35243
G1 X88.212 Y116.792 E90.43827
G1 X87.944 Y116.166 E90.51998
G1 X87.707 Y115.305 E90.62715
G1 X87.7 Y115.269 E90.63155
G1 X87.609 Y114.594 E90.71328
G1 X87.593 Y114.162 E90.76516
G1 X87.593 Y108.139 E91.48792
G1 X87.633 Y107.459 E91.56966
G1 X87.758 Y106.765 E91.65428
G1 X87.768 Y106.724 E91.65934
G1 X87.968 Y106.073 E91.74107
G1 X88.221 Y105.494 E91.81689
G1 X88.319 Y105.299 E91.84308
G1 X88.66 Y104.709 E91.92485
G1 X89.067 Y104.164 E92.00648
G1 X89.536 Y103.67 E92.08822
G0 F3600 X89.86 Y103.915
G1 F1800 X90.372 Y103.502 E92.16715
G1 X90.929 Y103.155 E92.2459
G1 X91.486 Y102.887 E92.32008
G1 X92.1 Y102.653 E92.39893
G1 X93.026 Y102.449 E92.51271
G1 X93.057 Y102.445 E92.51646
G1 X93.748 Y102.401 E92.59955
G1 X129.262 Y102.4 E96.86123
G1 X129.918 Y102.44 E96.9401
G1 X130.564 Y102.559 E97.01892
G1 X131.248 Y102.779 E97.10514
G1 X131.473 Y102.868 E97.13418
G1 X132.068 Y103.146 E97.21299
G1 X132.625 Y103.494 E97.2918
G1 X133.136 Y103.908 E97.37072
G1 X133.592 Y104.381 E97.44956
G1 X133.988 Y104.905 E97.52838
G1 X134.321 Y105.483 E97.60842
G1 X134.434 Y105.71 E97.63885
G1 X134.691 Y106.314 E97.71762
G1 X134.901 Y107.085 E97.81351
G1 X134.908 Y107.121 E97.81791
G1 X134.994 Y107.773 E97.89683
G1 X135.007 Y108.152 E97.94234
G1 X135.007 Y114.176 E98.66522
G1 X134.967 Y114.832 E98.74408
G1 X134.853 Y115.456 E98.8202
G1 X134.843 Y115.497 E98.82527
G1 X134.649 Y116.124 E98.90403
G1 X134.422 Y116.642 E98.97189
G1 X134.324 Y116.837 E98.99808
G1 X133.994 Y117.405 E99.07691
G1 X133.597 Y117.928 E99.1557
G1 X133.14 Y118.4 E99.23454
G1 X132.628 Y118.813 E99.31348
G1 X132.071 Y119.16 E99.39223
G1 X131.514 Y119.428 E99.4664
G1 X130.9 Y119.662 E99.54525
G1 X129.974 Y119.866 E99.65904
G1 X129.943 Y119.87 E99.66279
G1 X129.252 Y119.914 E99.74588
G1 X93.733 Y119.915 E104.00816
G1 X93.077 Y119.875 E104.08702
G1 X92.519 Y119.777 E104.15501
G1 X92.48 Y119.768 E104.15981
G1 X91.85 Y119.581 E104.23867
G1 X91.214 Y119.307 E104.32177
G1 X90.638 Y118.992 E104.40055
G1 X90.104 Y118.609 E104.47941
G1 X89.62 Y118.165 E104.55823
G1 X89.194 Y117.664 E104.63714
G1 X88.681 Y116.835 E104.75413
G1 X88.57 Y116.613 E104.78391
G1 X88.313 Y116.009 E104.86268
G1 X88.099 Y115.229 E104.95974
G1 X88.092 Y115.193 E104.96414
G1 X88.006 Y114.541 E105.04306
G1 X87.993 Y114.162 E105.08857
